X: 30491
T: Old, The
R: waltz
M: 3/4
K: Gmajor
G2 B2 c2|d3 e d2|c2 B2 A2|B3 A G2|G2 B2 c2|
d3 e d2|c2 B2 A2|G4 GA:|:d2 d2 d2|c3 B B2|
A3 A A2|B2 G2 GA|B2 d2 d2||c4 B2|B2 G2 A2|
GE GA G4|d2 BG GB|d4 d2|ec B2 A2|G6|

